static/assets/images/exchanges/gemini.svg

<svg width="257" height="256" viewBox="0 0 257 256" fill="none" xmlns="http://www.w3.org/2000/svg">
<path d="M167.904 0C122.879 0 84.6325 34.638 79.8119 79.2131C35.2367 84.0281 0.604492 122.28 0.604492 167.305C0.604492 216.245 40.3591 256 89.2996 256C134.319 256 172.724 221.362 177.391 176.787C221.967 171.972 256.599 133.72 256.599 88.695C256.599 39.7545 216.844 0 167.904 0ZM235.819 98.6323C231.448 128.302 207.658 152.092 177.995 156.457V98.6323H235.819ZM21.3839 157.368C25.7492 127.545 49.545 103.755 79.2087 99.3893V157.214H21.3839V157.368ZM157.209 177.39C154.808 193.681 146.626 208.564 134.158 219.32C121.689 230.076 105.766 235.987 89.2996 235.972C72.8318 235.988 56.9079 230.078 44.438 219.322C31.9682 208.566 23.785 193.682 21.3839 177.39H157.209ZM157.967 98.638V157.214H99.2368V98.638H157.967ZM235.819 78.6042H99.9881C102.39 62.3134 110.574 47.4308 123.044 36.6759C135.514 25.921 151.437 20.0119 167.904 20.0282C184.371 20.0121 200.295 25.922 212.765 36.6781C225.235 47.4342 233.418 62.3181 235.819 78.6099V78.6042Z" fill="#00DCFA"/>
</svg>

<svg xmlns="http://www.w3.org/2000/svg" fill="none" viewBox="0 0 257 256"><path fill="#00DCFA" d="M167.904 0c-45.025 0-83.271 34.638-88.092 79.213C35.237 84.028.604 122.28.604 167.305.604 216.245 40.36 256 89.3 256c45.019 0 83.424-34.638 88.091-79.213 44.576-4.815 79.208-43.067 79.208-88.092C256.599 39.755 216.844 0 167.904 0m67.915 98.632c-4.371 29.67-28.161 53.46-57.824 57.825V98.632zM21.384 157.368c4.365-29.823 28.161-53.613 57.825-57.979v57.825H21.384zm135.825 20.022a68.58 68.58 0 0 1-67.91 58.582 68.58 68.58 0 0 1-67.915-58.582zm.758-78.752v58.576h-58.73V98.638zm77.852-20.034H99.989a68.58 68.58 0 0 1 67.915-58.576 68.58 68.58 0 0 1 67.915 58.582z"/></svg>
